assets/contact-line.svg

<svg xmlns="http://www.w3.org/2000/svg" fill="none" viewBox="0 0 24 25">
  <path fill="#2A2238" d="M16.1765 17.7419c0-1.9249-.8522-3.7711-2.369-5.1322-1.5169-1.3612-3.5741-2.1258-5.71926-2.1258-2.14514 0-4.20241.7646-5.71925 2.1258C.852151 13.9708 3.2e-7 15.817 0 17.7419h16.1765Z"/>
  <ellipse cx="8.53766" cy="4.43548" fill="#2A2238" rx="4.94281" ry="4.43548"/>
  <path fill="#2A2238" d="M23 6.5h.5v1H23v-1Zm-5 1c-.2761 0-.5-.22386-.5-.5s.2239-.5.5-.5v1Zm5 0h-5v-1h5v1ZM23 9h.5v1H23V9Zm-2.5 1c-.2761 0-.5-.22386-.5-.5s.2239-.5.5-.5v1Zm2.5 0h-2.5V9H23v1Zm0-8.5h.5v1H23v-1Zm-5 1c-.2761 0-.5-.22386-.5-.5s.2239-.5.5-.5v1Zm5 0h-5v-1h5v1ZM23 4h.5v1H23V4Zm-2.5 1c-.2761 0-.5-.22386-.5-.5s.2239-.5.5-.5v1ZM23 5h-2.5V4H23v1Zm0 6.5h.5v1H23v-1Zm-5 1c-.2761 0-.5-.2239-.5-.5s.2239-.5.5-.5v1Zm5 0h-5v-1h5v1Zm0 1.5h.5v1H23v-1Zm-2.5 1c-.2761 0-.5-.2239-.5-.5s.2239-.5.5-.5v1Zm2.5 0h-2.5v-1H23v1Zm0 1.5h.5v1H23v-1Zm-5 1c-.2761 0-.5-.2239-.5-.5s.2239-.5.5-.5v1Zm5 0h-5v-1h5v1Z"/>
</svg>

<svg width="24" height="25" viewBox="0 0 24 25" fill="none" xmlns="http://www.w3.org/2000/svg">
<path d="M16.1765 17.7419C16.1765 15.817 15.3243 13.9708 13.8075 12.6097C12.2906 11.2485 10.2334 10.4839 8.08824 10.4839C5.9431 10.4839 3.88583 11.2485 2.36899 12.6097C0.852151 13.9708 3.23906e-07 15.817 0 17.7419L8.08823 17.7419H16.1765Z" fill="#2A2238"/>
<ellipse cx="8.53766" cy="4.43548" rx="4.94281" ry="4.43548" fill="#2A2238"/>
<path d="M23 6.5H23.5V7.5H23V6.5ZM18 7.5C17.7239 7.5 17.5 7.27614 17.5 7C17.5 6.72386 17.7239 6.5 18 6.5V7.5ZM23 7.5H18V6.5H23V7.5Z" fill="#2A2238"/>
<path d="M23 9H23.5V10H23V9ZM20.5 10C20.2239 10 20 9.77614 20 9.5C20 9.22386 20.2239 9 20.5 9V10ZM23 10H20.5V9H23V10Z" fill="#2A2238"/>
<path d="M23 1.5H23.5V2.5H23V1.5ZM18 2.5C17.7239 2.5 17.5 2.27614 17.5 2C17.5 1.72386 17.7239 1.5 18 1.5V2.5ZM23 2.5H18V1.5H23V2.5Z" fill="#2A2238"/>
<path d="M23 4H23.5V5H23V4ZM20.5 5C20.2239 5 20 4.77614 20 4.5C20 4.22386 20.2239 4 20.5 4V5ZM23 5H20.5V4H23V5Z" fill="#2A2238"/>
<path d="M23 11.5H23.5V12.5H23V11.5ZM18 12.5C17.7239 12.5 17.5 12.2761 17.5 12C17.5 11.7239 17.7239 11.5 18 11.5V12.5ZM23 12.5H18V11.5H23V12.5Z" fill="#2A2238"/>
<path d="M23 14H23.5V15H23V14ZM20.5 15C20.2239 15 20 14.7761 20 14.5C20 14.2239 20.2239 14 20.5 14V15ZM23 15H20.5V14H23V15Z" fill="#2A2238"/>
<path d="M23 16.5H23.5V17.5H23V16.5ZM18 17.5C17.7239 17.5 17.5 17.2761 17.5 17C17.5 16.7239 17.7239 16.5 18 16.5V17.5ZM23 17.5H18V16.5H23V17.5Z" fill="#2A2238"/>
</svg>
